X:14
T: Die Geburt im Walde
N: Q0007
O: Mitteleuropa, Deutschland (BRD) , Rheinland, Siebengebirge
R: Ballade, Geburt, Tod, Moral
M: 3/4
L: 1/8
K: E
=GA | B4B2 | B2B2BA | =G2E2FG | A2z2
B2 | =G2B2A2 | F2F2F=G | A2=G2F2 | E4

@@@ Tune index: 643
